assets/icons/24px/stroke/text-24px.svg

<svg width="24" height="24" viewBox="0 0 24 24" fill="none" xmlns="http://www.w3.org/2000/svg">
<path fill-rule="evenodd" clip-rule="evenodd" d="M7.7991 2C7.81933 2 7.83963 2 7.86 2L16.2009 2C17.0237 1.99996 17.7329 1.99992 18.3042 2.07155C18.9143 2.14805 19.5041 2.31981 20.0016 2.76532C20.0835 2.8387 20.1613 2.91653 20.2347 2.99846C20.6802 3.49586 20.852 4.08568 20.9285 4.69585C21.0001 5.26712 21 5.97626 21 6.79907L21 7C21 7.55229 20.5523 8 20 8C19.4477 8 19 7.55229 19 7V6.86C19 5.95895 18.9982 5.37666 18.944 4.94466C18.8929 4.53751 18.8096 4.40506 18.7449 4.33282C18.7204 4.30551 18.6945 4.27957 18.6672 4.25511C18.595 4.19041 18.4625 4.10706 18.0553 4.05601C17.6234 4.00185 17.0411 4 16.14 4H13V20H16C16.5523 20 17 20.4477 17 21C17 21.5523 16.5523 22 16 22H8C7.44772 22 7 21.5523 7 21C7 20.4477 7.44772 20 8 20H11V4H7.86C6.95895 4 6.37666 4.00185 5.94466 4.05601C5.53751 4.10706 5.40506 4.19041 5.33282 4.25511C5.30551 4.27957 5.27957 4.30551 5.25511 4.33282C5.19041 4.40506 5.10706 4.53751 5.05601 4.94466C5.00185 5.37666 5 5.95895 5 6.86V7C5 7.55229 4.55229 8 4 8C3.44772 8 3 7.55229 3 7V6.86C3 6.83963 3 6.81933 3 6.7991C2.99996 5.97628 2.99992 5.26712 3.07155 4.69585C3.14805 4.08568 3.31981 3.49586 3.76532 2.99846C3.8387 2.91653 3.91653 2.8387 3.99846 2.76532C4.49586 2.31981 5.08568 2.14805 5.69585 2.07155C6.26712 1.99992 6.97628 1.99996 7.7991 2Z" fill="white"/>
</svg>

<svg width="24" height="24" fill="none" xmlns="http://www.w3.org/2000/svg"><path fill-rule="evenodd" clip-rule="evenodd" d="M7.8 2h8.4c.824 0 1.533 0 2.104.072.61.076 1.2.248 1.698.693.082.074.16.152.233.233.445.498.617 1.088.694 1.698.071.571.071 1.28.071 2.103V7a1 1 0 1 1-2 0v-.14c0-.901-.002-1.483-.056-1.915-.051-.407-.134-.54-.2-.612a1.008 1.008 0 0 0-.077-.078c-.072-.065-.205-.148-.612-.199C17.623 4.002 17.041 4 16.14 4H13v16h3a1 1 0 1 1 0 2H8a1 1 0 1 1 0-2h3V4H7.86c-.901 0-1.483.002-1.915.056-.407.051-.54.134-.612.2a1 1 0 0 0-.078.077c-.065.072-.148.205-.199.612C5.002 5.377 5 5.959 5 6.86V7a1 1 0 1 1-2 0v-.14-.06c0-.824 0-1.533.072-2.104.076-.61.248-1.2.693-1.698a3 3 0 0 1 .233-.233c.498-.445 1.088-.617 1.698-.693C6.267 2 6.976 2 7.799 2z" fill="#fff"/></svg>
